svgs/duotone/display-arrow-down.svg

<svg xmlns="http://www.w3.org/2000/svg" viewBox="0 0 576 512"><!-- Font Awesome Pro 6.0.0-alpha2 by @fontawesome - https://fontawesome.com License - https://fontawesome.com/license (Commercial License) --><defs><style>.fa-secondary{opacity:.4}</style></defs><path d="M576 48V368C576 394.5 554.5 416 528 416H48C21.5 416 0 394.5 0 368V48C0 21.5 21.5 0 48 0H264V64H64V352H512V64H312V0H528C554.5 0 576 21.5 576 48Z" class="fa-secondary"/><path d="M424 464H352L336 416H240L224 464H152C138.75 464 128 474.75 128 488S138.75 512 152 512H424C437.25 512 448 501.25 448 488S437.25 464 424 464ZM312 64V206.062L351.031 167.031C360.406 157.656 375.594 157.656 384.969 167.031S394.344 191.594 384.969 200.969L304.969 280.969C295.594 290.344 280.406 290.344 271.031 280.969L191.031 200.969C181.656 191.594 181.656 176.406 191.031 167.031C195.719 162.344 201.844 160 208 160S220.281 162.344 224.969 167.031L264 206.062V64H64V352H512V64H312Z" class="fa-primary"/></svg>

<svg xmlns="http://www.w3.org/2000/svg" viewBox="0 0 576 512"><!--! Font Awesome Pro 6.3.0 by @fontawesome - https://fontawesome.com License - https://fontawesome.com/license (Commercial License) Copyright 2023 Fonticons, Inc. --><defs><style>.fa-secondary{opacity:.4}</style></defs><path class="fa-primary" d="M424 464H352L336 416h-96L224 464H152C138.8 464 128 474.8 128 488S138.8 512 152 512h272c13.25 0 24-10.75 24-24S437.3 464 424 464zM312 64v142.1l39.03-39.03c9.375-9.375 24.56-9.375 33.94 0s9.375 24.56 0 33.94l-80 80c-9.375 9.375-24.56 9.375-33.94 0l-80-80c-9.375-9.375-9.375-24.56 0-33.94C195.7 162.3 201.8 160 208 160s12.28 2.344 16.97 7.031L264 206.1V64H64v288h448V64H312z"/><path class="fa-secondary" d="M576 48v320c0 26.5-21.5 48-48 48h-480C21.5 416 0 394.5 0 368v-320C0 21.5 21.5 0 48 0h216v64H64v288h448V64h-200V0h216C554.5 0 576 21.5 576 48z"/></svg>
